!!!ONR: No. 38
!! From Harold Courlander, "Haiti Singing"
!! Chapel Hill: University of North Carolina Press, 1939
!! Copyright University of North Carolina Press
!!!ENC: D. Huron
**kern
*clefG2
*k[]
*M2/4
=1-
8r
8cc
8cc
8cc
=
8e
4g
8cc
=
[2cc
=
8cc]
8e
8g
8a
=
8a
8g
8dd
[8dd
=
8dd]
8e
8a
8g
=
4e
[4g
=
8g]
8cc
8cc
8dd
=
2ee
=
8cc
8dd
8cc
8a
=
4cc
[4cc
=
2cc]
=
8ee
8cc
8dd
8cc
=
8ee
8cc
8dd
8cc
=
2cc
=
8cc
8dd
8cc
8ccc
=
4g
[4g
=
2g]
=
8ee
8cc
8dd
8cc
=
8ee
8cc
8dd
8cc
=
2cc
=
8cc
8dd
8cc
8cc
=
4g
[4g
=
2g]
=
8ee
8cc
8dd
8cc
=
8ee
8cc
8dd
8cc
=
2cc
=
8cc
8dd
8cc
8cc
=
4g
[4g
=
2g_
=
2g]
=
8r
8cc
8cc
8cc
=
8e
4g
8cc
=
[2cc
=
8cc]
8e
8g
8a
=
8a
8g
8dd
[8dd
=
8dd]
8e
8a
8g
=
4e
[4g
=
8g]
8cc
8cc
8dd
=
2ee
=
8cc
8dd
8cc
8a
=
4cc
[4cc
=
2cc]
==
*-
